X: 4672
T:Harvest Home
C:Trad.
S:Black Book
M:4/4
K:D
||AF | DAFA DAFA | defe dcBA | eA fA gA fA | (3efe (3dcB (3ABA (3GFE|
DAFA DAFA | defe dcBA | eA fA gece | d2 e2 d2:|
||cd | eA (3AAA fA (3AAA | gA fA eA (3AAA | eA fA gA fA | (3efe (3dcB (3ABA (3GFE|
DAFA DAFA | defe dcBA | eA fA gece | d2 e2 d2:|
